X: 23705
T: Lisheen, The
R: reel
M: 4/4
K: Gmajor
|:B2dB c2ec|BcdB A2A2|B2dB c2ec|BcdB G2G2
B2dB c2ec|BcdB A2A2|g2ge dBGA|B2dB G2G2:|
|:g2ge dBGA|B2dB A2A2|g2ge dBGA|BcdB G2G2
g2ge dBGA|B2dB A2A2|B2dB c2ec|B2dB G2G2:|

